public/icons/networks/plasma.svg

<svg width="240" height="240" viewBox="0 0 240 240" fill="none" xmlns="http://www.w3.org/2000/svg">
<rect width="240" height="240" rx="120" fill="#162F29"/>
<path d="M211.875 120.492C211.875 121.424 211.862 122.355 211.835 123.287H211.729H167.148V121.251H124.139C124.139 120.825 124.152 120.399 124.152 119.987C124.152 119.574 124.152 119.135 124.139 118.722H167.148V116.7H167.215H211.795C211.848 117.964 211.875 119.228 211.875 120.492ZM123.38 111.324L165.472 106.147L165.725 108.17L210.172 102.7C209.746 100.518 209.24 98.362 208.668 96.2461L164.913 101.636L165.166 103.658L122.874 108.862C123.061 109.687 123.234 110.512 123.38 111.35V111.324ZM121.184 103.179L161.413 93.1321L161.905 95.1017L204.596 84.4424C203.717 82.3797 202.773 80.3436 201.761 78.3608L160.322 88.7141L160.814 90.6836L120.253 100.824C120.586 101.609 120.892 102.394 121.184 103.193V103.179ZM117.618 95.5541L155.225 81.355L155.944 83.258L195.733 68.2338C194.442 66.3441 193.085 64.5077 191.648 62.7245L153.615 77.0833L154.333 78.9863L116.274 93.3584C116.74 94.077 117.192 94.8089 117.618 95.5541ZM112.681 88.5011L145.896 71.1881L146.828 72.9979L183.557 53.8484C181.867 52.2116 180.11 50.6546 178.3 49.1509L143.781 67.1426L144.712 68.9524L110.938 86.5582C111.523 87.197 112.109 87.8358 112.668 88.5011H112.681ZM104.67 80.8892L134.745 61.7664L135.836 63.483L169.025 42.3773C166.936 41.0466 164.806 39.809 162.611 38.6512L132.309 57.9205L133.401 59.6372L102.461 79.3056C103.219 79.8113 103.951 80.3436 104.683 80.8892H104.67ZM97.5635 76.4445L122.768 55.778L124.059 57.3483L152.444 34.0601C150.035 33.1419 147.56 32.3169 145.058 31.5983L119.88 52.2515L121.171 53.8218L95.0484 75.2469C95.9001 75.6195 96.7385 76.0187 97.5635 76.4445ZM88.1551 72.785L108.063 52.9701L109.487 54.4073L134.785 29.2694C132.043 28.817 129.262 28.4843 126.441 28.2714L104.869 49.7364L106.293 51.1736L85.2674 72.093C86.2389 72.2926 87.197 72.5188 88.1551 72.785ZM77.1498 71.1215L93.0257 51.8789L94.596 53.1697L115.263 28.125C112.122 28.2714 109.021 28.5775 105.974 29.0299L89.5125 48.9779L91.0828 50.2687L73.8895 71.1082C74.3686 71.0949 74.8609 71.0816 75.34 71.0816C75.9522 71.0816 76.551 71.0816 77.1498 71.1082V71.1215ZM67.635 71.6938L79.8646 52.7705L81.5679 53.875L96.3526 30.9861C92.9725 31.8644 89.6722 32.929 86.4518 34.1666L76.0453 50.282L77.7487 51.3865L64.2016 72.3591C65.3328 72.093 66.4772 71.8668 67.635 71.6805V71.6938ZM57.0688 74.6347L65.8651 58.1467L67.6483 59.1049L79.2923 37.2939C75.5529 39.117 71.9599 41.1797 68.5266 43.4685L61.8329 56.0042L63.6294 56.9624L53.2762 76.3647C54.5005 75.7392 55.7647 75.167 57.0555 74.648L57.0688 74.6347ZM49.4835 78.5072L53.2229 67.8878L55.1392 68.5665L62.4051 47.9399C58.719 50.8675 55.259 54.0613 52.0519 57.508L48.9246 66.3841L50.8409 67.0628L45.9437 80.9558C47.0882 80.0908 48.2593 79.279 49.4702 78.5205L49.4835 78.5072ZM40.155 86.1058L41.8051 78.3874L43.7879 78.8133L47.1148 63.2701C43.6149 67.7148 40.5143 72.4922 37.8661 77.5358L39.3432 77.8551L36.3091 90.6303C37.4935 89.0467 38.7843 87.5297 40.155 86.1058ZM33.3016 95.1283V84.9081C30.8264 91.4421 29.0698 99.573 28.125 107.544C29.2828 103.126 31.0393 98.9608 33.3016 95.1283ZM28.1915 132.695C29.163 139.495 30.8663 146.056 33.2351 152.297V144.752C31.0527 141.026 29.336 136.98 28.1915 132.695ZM36.6285 149.795L39.2767 162.145L37.7996 162.464C40.4477 167.521 43.5484 172.285 47.0483 176.73L43.7214 161.187L41.7386 161.613L40.0618 153.801C38.8508 152.524 37.6931 151.193 36.6285 149.782V149.795ZM45.8506 158.978L50.7744 172.951L48.8581 173.629L51.9854 182.505C55.1925 185.952 58.6524 189.146 62.3386 192.073L55.0727 171.447L53.1564 172.125L49.4037 161.453C48.1927 160.681 47.0083 159.869 45.8639 159.004L45.8506 158.978ZM53.1963 163.595L63.5762 183.051L61.7797 184.009L68.4733 196.545C71.9067 198.834 75.4997 200.896 79.2391 202.719L67.5951 180.908L65.7985 181.867L56.9757 165.339C55.6848 164.82 54.4206 164.234 53.183 163.609L53.1963 163.595ZM64.1218 167.614L77.6821 188.613L75.9788 189.718L86.3852 205.833C89.6057 207.071 92.9059 208.136 96.286 209.014L81.5014 186.125L79.798 187.229L67.5551 168.28C66.3974 168.093 65.2396 167.867 64.1085 167.601L64.1218 167.614ZM73.8097 168.892L91.0029 189.731L89.4327 191.022L105.894 210.97C108.941 211.423 112.042 211.729 115.183 211.875L94.5161 186.817L92.9458 188.108L77.07 168.865C76.4978 168.892 75.9122 168.892 75.3267 168.892C74.821 168.892 74.302 168.892 73.7963 168.865L73.8097 168.892ZM85.2142 167.907L106.227 188.813L104.803 190.25L126.374 211.715C129.195 211.502 131.977 211.17 134.718 210.717L109.434 185.566L107.997 187.017L88.1019 167.215C87.1571 167.468 86.1856 167.707 85.2142 167.907ZM95.0085 164.78L121.105 186.192L119.814 187.762L144.991 208.415C147.493 207.696 149.968 206.871 152.377 205.953L123.979 182.665L122.688 184.235L97.5103 163.582C96.6852 164.008 95.8469 164.407 94.9952 164.78H95.0085ZM102.407 160.708L133.307 180.363L132.216 182.079L162.517 201.349C164.713 200.191 166.856 198.94 168.932 197.623L135.743 176.517L134.652 178.234L104.617 159.137C103.885 159.683 103.153 160.215 102.394 160.721L102.407 160.708ZM110.924 153.468L144.659 171.048L143.727 172.857L178.247 190.849C180.057 189.345 181.813 187.788 183.503 186.152L146.775 167.002L145.843 168.812L112.668 151.525C112.109 152.191 111.536 152.843 110.938 153.468H110.924ZM116.261 146.655L154.267 161.014L153.548 162.917L191.581 177.275C193.005 175.492 194.362 173.656 195.666 171.766L155.877 156.742L155.158 158.645L117.605 144.459C117.179 145.204 116.726 145.936 116.261 146.655ZM120.24 139.203L160.734 149.316L160.242 151.286L201.681 161.639C202.706 159.656 203.651 157.62 204.529 155.558L161.839 144.898L161.346 146.868L121.171 136.834C120.878 137.632 120.559 138.418 120.24 139.203ZM122.874 131.165L165.099 136.355L164.846 138.378L208.601 143.767C209.174 141.638 209.679 139.482 210.105 137.313L165.658 131.844L165.405 133.866L123.38 128.69C123.234 129.528 123.061 130.353 122.874 131.178V131.165Z" fill="white"/>
</svg>

<svg width="240" height="240" viewBox="0 0 240 240" fill="none" xmlns="http://www.w3.org/2000/svg"><rect width="240" height="240" rx="120" fill="#162F29"/><path d="M211.875 120.492c0 .932-.013 1.863-.04 2.795h-44.687v-2.036h-43.009c0-.426.013-.852.013-1.264 0-.413 0-.852-.013-1.265h43.009V116.7h44.647c.053 1.264.08 2.528.08 3.792Zm-88.495-9.168 42.092-5.177.253 2.023 44.447-5.47a93.152 93.152 0 0 0-1.504-6.454l-43.755 5.39.253 2.022-42.292 5.204c.187.825.36 1.65.506 2.488v-.026Zm-2.196-8.145 40.229-10.047.492 1.97 42.691-10.66a97.29 97.29 0 0 0-2.835-6.081l-41.439 10.353.492 1.97-40.561 10.14c.333.785.639 1.57.931 2.369v-.014Zm-3.566-7.625 37.607-14.199.719 1.903 39.789-15.024a86.802 86.802 0 0 0-4.085-5.51l-38.033 14.36.718 1.902-38.059 14.372c.466.719.918 1.45 1.344 2.196Zm-4.937-7.053 33.215-17.313.932 1.81 36.729-19.15a92.483 92.483 0 0 0-5.257-4.697l-34.519 17.992.931 1.81-33.774 17.605c.585.639 1.171 1.278 1.73 1.943h.013Zm-8.011-7.612 30.075-19.123 1.091 1.717 33.189-21.106a90.5 90.5 0 0 0-6.414-3.726l-30.302 19.27 1.092 1.716-30.94 19.669c.758.505 1.49 1.038 2.222 1.583h-.013Zm-7.106-4.444 25.204-20.667 1.291 1.57 28.385-23.288a92.397 92.397 0 0 0-7.386-2.462L119.88 52.252l1.291 1.57-26.123 21.425c.852.373 1.69.772 2.516 1.198Zm-9.409-3.66 19.908-19.815 1.424 1.437 25.298-25.138a95.274 95.274 0 0 0-8.344-.998l-21.572 21.465 1.424 1.438-21.026 20.919c.972.2 1.93.426 2.888.692ZM77.15 71.122l15.876-19.243 1.57 1.29 20.667-25.044a92.62 92.62 0 0 0-9.289.905L89.512 48.978l1.57 1.29-17.192 20.84c.479-.013.97-.026 1.45-.026.612 0 1.211 0 1.81.026v.013Zm-9.515.572 12.23-18.924 1.703 1.105 14.785-22.889a92.282 92.282 0 0 0-9.901 3.18L76.045 50.283l1.704 1.105L64.202 72.36a48.946 48.946 0 0 1 3.433-.678v.013Zm-10.566 2.94 8.796-16.487 1.783.958 11.644-21.811a92.402 92.402 0 0 0-10.765 6.175l-6.694 12.535 1.796.958-10.353 19.403a46.167 46.167 0 0 1 3.78-1.717l.013-.013Zm-7.586 3.873 3.74-10.62 1.916.68 7.266-20.627a93.92 93.92 0 0 0-10.353 9.568l-3.127 8.876 1.916.679-4.897 13.893a48.859 48.859 0 0 1 3.526-2.436l.014-.013Zm-9.328 7.599 1.65-7.719 1.983.426 3.327-15.543a92.799 92.799 0 0 0-9.249 14.266l1.477.32L36.31 90.63a47.948 47.948 0 0 1 3.846-4.524Zm-6.853 9.022v-10.22c-2.476 6.534-4.232 14.665-5.177 22.636a48.687 48.687 0 0 1 5.177-12.416Zm-5.11 37.567a91.77 91.77 0 0 0 5.043 19.602v-7.545a48.748 48.748 0 0 1-5.043-12.057Zm8.437 17.1 2.648 12.35-1.477.319a92.165 92.165 0 0 0 9.248 14.266l-3.327-15.543-1.982.426-1.677-7.812a46.991 46.991 0 0 1-3.433-4.019v.013Zm9.222 9.183 4.923 13.973-1.916.678 3.127 8.876a93.823 93.823 0 0 0 10.354 9.568l-7.266-20.626-1.917.678-3.752-10.672a54.02 54.02 0 0 1-3.54-2.449l-.013-.026Zm7.345 4.617 10.38 19.456-1.796.958 6.693 12.536a92.364 92.364 0 0 0 10.766 6.174l-11.644-21.811-1.796.959-8.823-16.528a48.879 48.879 0 0 1-3.793-1.73l.013-.014Zm10.926 4.019 13.56 20.999-1.703 1.105 10.406 16.115a92.135 92.135 0 0 0 9.901 3.181l-14.785-22.889-1.703 1.104-12.243-18.949a49.783 49.783 0 0 1-3.447-.679l.014.013Zm9.688 1.278 17.193 20.839-1.57 1.291 16.461 19.948c3.047.453 6.148.759 9.289.905l-20.667-25.058-1.57 1.291-15.876-19.243c-.572.027-1.158.027-1.743.027-.506 0-1.025 0-1.53-.027l.013.027Zm11.404-.985 21.013 20.906-1.424 1.437 21.571 21.465a95.037 95.037 0 0 0 8.344-.998l-25.284-25.151-1.437 1.451-19.895-19.802c-.945.253-1.916.492-2.888.692Zm9.794-3.127 26.097 21.412-1.291 1.57 25.177 20.653a92.64 92.64 0 0 0 7.386-2.462l-28.398-23.288-1.291 1.57-25.178-20.653c-.825.426-1.663.825-2.515 1.198h.013Zm7.399-4.072 30.9 19.655-1.091 1.716 30.301 19.27a92.8 92.8 0 0 0 6.415-3.726l-33.189-21.106-1.091 1.717-30.035-19.097a51.489 51.489 0 0 1-2.223 1.584l.013-.013Zm8.517-7.24 33.735 17.58-.932 1.809 34.52 17.992a92.88 92.88 0 0 0 5.256-4.697l-36.728-19.15-.932 1.81-33.175-17.287a40.017 40.017 0 0 1-1.73 1.943h-.014Zm5.337-6.813 38.006 14.359-.719 1.903 38.033 14.358a97.947 97.947 0 0 0 4.085-5.509l-39.789-15.024-.719 1.903-37.553-14.186a47.185 47.185 0 0 1-1.344 2.196Zm3.979-7.452 40.494 10.113-.492 1.97 41.439 10.353a90.23 90.23 0 0 0 2.848-6.081l-42.69-10.66-.493 1.97-40.175-10.034a74.596 74.596 0 0 1-.931 2.369Zm2.634-8.038 42.225 5.19-.253 2.023 43.755 5.389a96.183 96.183 0 0 0 1.504-6.454l-44.447-5.469-.253 2.022-42.025-5.176a50.249 50.249 0 0 1-.506 2.488v-.013Z" fill="#fff"/></svg>
